BOEHME
CUT[WIE WIRD MIR SO BANG]
REG[Europa, Mitteleuropa, Deutschland, Hunsrueck]
KEY[B0500A 16  D 6/8]
MEL[-5_  -5_.-5-5_-5_-5_-5_  -5_1_-5_-5__
    -5_  -4_.-4-4_-6_-5_-4_  -3___0_
    -3_  -2_.-2-2_-2_-4#_-6_  1__-7_-5__
    -7_  -6_-6_-2_-7_-7_-6_  -5___0_
    -5_  -6__-5_-4_-3_-4_  -5__-4_-3__
    -5_  -6__-5_-4_-3_-4_  -5__-4_-3__
    -5_  -7_-6_-5_-7_-6_-5_  3___0_
    1_  1___0_-6_  -5___0_
    -5_  -7_-6_-5_4_-6_-7_  1___0_ //] >>
FCT[Abschieds - Lied]
